X: 35540
T: Running Man
R: jig
M: 6/8
K: Amajor
|:GAB GBe|eef eBB|GAB AGF|FEF GFE|
GAB GBe|Bef eBB|GAB AGF|FE_E =E3:|
|:GBe GBe|eef efg|agf fec|e3 fec|
Bce eBe|fee efg|agf ecB|cef ecB:|

